contributed-vectors/dcoder.svg

<?xml version="1.0" encoding="UTF-8" standalone="no"?>
<svg
   xmlns:dc="http://purl.org/dc/elements/1.1/"
   xmlns:cc="http://creativecommons.org/ns#"
   xmlns:rdf="http://www.w3.org/1999/02/22-rdf-syntax-ns#"
   xmlns:svg="http://www.w3.org/2000/svg"
   xmlns="http://www.w3.org/2000/svg"
   xmlns:sodipodi="http://sodipodi.sourceforge.net/DTD/sodipodi-0.dtd"
   xmlns:inkscape="http://www.inkscape.org/namespaces/inkscape"
   width="100%"
   height="100%"
   viewBox="0 0 192 192"
   version="1.1"
   xml:space="preserve"
   style="fill-rule:evenodd;clip-rule:evenodd;stroke-linejoin:round;stroke-miterlimit:2;"
   id="svg17"
   sodipodi:docname="dcoder.svg"
   inkscape:version="1.0.1 (3bc2e813f5, 2020-09-07)"
   inkscape:export-filename="/home/jphilippe/github/delta/android/contributed-vectors/dcoder.png"
   inkscape:export-xdpi="96"
   inkscape:export-ydpi="96"><metadata
   id="metadata23"><rdf:RDF><cc:Work
       rdf:about=""><dc:format>image/svg+xml</dc:format><dc:type
         rdf:resource="http://purl.org/dc/dcmitype/StillImage" /></cc:Work></rdf:RDF></metadata><defs
   id="defs21">
        
        
    </defs><sodipodi:namedview
   pagecolor="#ffffff"
   bordercolor="#666666"
   borderopacity="1"
   objecttolerance="10"
   gridtolerance="10"
   guidetolerance="10"
   inkscape:pageopacity="0"
   inkscape:pageshadow="2"
   inkscape:window-width="1884"
   inkscape:window-height="1052"
   id="namedview19"
   showgrid="false"
   inkscape:zoom="3.3697917"
   inkscape:cx="96"
   inkscape:cy="98.86353"
   inkscape:window-x="36"
   inkscape:window-y="0"
   inkscape:window-maximized="1"
   inkscape:current-layer="svg17" />
    <g
   transform="matrix(0.99346405,0,0,0.99346405,8.5751636,8.5751636)"
   id="g4"
   style="fill:#56595b;fill-opacity:1">
            <path
   d="m 164.5,21.5 c 0,-5.519 -4.481,-10 -10,-10 h -133 c -5.519,0 -10,4.481 -10,10 v 133 c 0,5.519 4.481,10 10,10 h 133 c 5.519,0 10,-4.481 10,-10 z"
   style="fill:#56595b;fill-opacity:1"
   id="path2" />
        </g><g
   transform="matrix(0.73701521,0,0,0.73701521,25.737553,26.511859)"
   id="g14">
            <g
   transform="matrix(0.954226,0.299086,-0.397453,1.26806,57.4323,-59.0297)"
   id="g8">
                <path
   d="m 65.404,73.63 c 0,-0.56 -0.604,-1.014 -1.348,-1.014 -2.329,0 -7.078,0 -9.406,0 -0.745,0 -1.348,0.454 -1.348,1.014 0,7.842 0,58.707 0,66.548 0,0.561 0.603,1.015 1.348,1.015 2.328,0 7.077,0 9.406,0 0.744,0 1.348,-0.454 1.348,-1.015 0,-7.841 0,-58.706 0,-66.548 z"
   style="fill:#ebebeb"
   id="path6" />
            </g>
            <g
   transform="rotate(-45,114.7476,96.035636)"
   id="g12">
                <path
   d="M 122.072,114.587 H 75.249 c -0.745,0 -1.348,-0.603 -1.348,-1.348 0,-2.328 0,-7.077 0,-9.406 0,-0.744 0.603,-1.348 1.348,-1.348 6.692,0 36.29,0 42.982,0 0.357,0 0.7,-0.142 0.953,-0.395 0.253,-0.252 0.395,-0.595 0.395,-0.953 V 58.155 c 0,-0.744 0.603,-1.348 1.348,-1.348 2.328,0 7.077,0 9.406,0 0.744,0 1.347,0.604 1.347,1.348 0,7.558 0,44.33 0,44.33 v 1.732 c 0,0 0,6.215 0,9.022 0,0.358 -0.142,0.7 -0.394,0.953 -0.253,0.253 -0.596,0.395 -0.953,0.395 -2.646,0 -8.261,0 -8.261,0 z"
   style="fill:#ebebeb"
   id="path10" />
            </g>
        </g>
</svg>

<?xml version="1.0" encoding="UTF-8" standalone="no"?>
<!DOCTYPE svg PUBLIC "-//W3C//DTD SVG 1.1//EN" "http://www.w3.org/Graphics/SVG/1.1/DTD/svg11.dtd">
<svg width="100%" height="100%" viewBox="0 0 192 192" version="1.1" xmlns="http://www.w3.org/2000/svg" xmlns:xlink="http://www.w3.org/1999/xlink" xml:space="preserve" xmlns:serif="http://www.serif.com/" style="fill-rule:evenodd;clip-rule:evenodd;stroke-linejoin:round;stroke-miterlimit:2;">
    <g id="Layer1">
        <g transform="matrix(1,0,0,1,8,8)">
            <path d="M164.5,21.5C164.5,15.981 160.019,11.5 154.5,11.5L21.5,11.5C15.981,11.5 11.5,15.981 11.5,21.5L11.5,154.5C11.5,160.019 15.981,164.5 21.5,164.5L154.5,164.5C160.019,164.5 164.5,160.019 164.5,154.5L164.5,21.5Z" style="fill:rgb(74,74,74);"/>
        </g>
        <g transform="matrix(0.741864,0,0,0.741864,25.2753,26.0547)">
            <g transform="matrix(0.954226,0.299086,-0.397453,1.26806,57.4323,-59.0297)">
                <path d="M65.404,73.63C65.404,73.07 64.8,72.616 64.056,72.616C61.727,72.616 56.978,72.616 54.65,72.616C53.905,72.616 53.302,73.07 53.302,73.63C53.302,81.472 53.302,132.337 53.302,140.178C53.302,140.739 53.905,141.193 54.65,141.193C56.978,141.193 61.727,141.193 64.056,141.193C64.8,141.193 65.404,140.739 65.404,140.178C65.404,132.337 65.404,81.472 65.404,73.63Z" style="fill:rgb(235,235,235);"/>
            </g>
            <g transform="matrix(0.707107,-0.707107,0.707107,0.707107,-34.2987,109.267)">
                <path d="M122.072,114.587L75.249,114.587C74.504,114.587 73.901,113.984 73.901,113.239C73.901,110.911 73.901,106.162 73.901,103.833C73.901,103.089 74.504,102.485 75.249,102.485C81.941,102.485 111.539,102.485 118.231,102.485C118.588,102.485 118.931,102.343 119.184,102.09C119.437,101.838 119.579,101.495 119.579,101.137L119.579,58.155C119.579,57.411 120.182,56.807 120.927,56.807C123.255,56.807 128.004,56.807 130.333,56.807C131.077,56.807 131.68,57.411 131.68,58.155C131.68,65.713 131.68,102.485 131.68,102.485L131.68,104.217C131.68,104.217 131.68,110.432 131.68,113.239C131.68,113.597 131.538,113.939 131.286,114.192C131.033,114.445 130.69,114.587 130.333,114.587C127.687,114.587 122.072,114.587 122.072,114.587L122.072,114.587Z" style="fill:rgb(235,235,235);"/>
            </g>
        </g>
    </g>
</svg>
